X: 14914
T: Gathering, The
R: jig
M: 6/8
K: Dmajor
|:B|AAA B2d|ABd d2f|eee edf|edB B2d|
AAA B2d|ABd d2f|eee Afe|ddd d2:|
e|fef a2e|fed d2f|eee edf|edB B2e|
fef a2e|fed d2f|eee Afe|ddd d2e|
fef a2e|fed d2f|eee edf|edB B2d|
AAA B2d|ABd d2f|eee Afe|ddd d2||

